X: 1
T: LEATHER THE WIG- JIG
B: Ryan's Mammoth Collection of Fiddle Tunes
R: jig
M: 9/8
L: 1/8
Z: Contributed 20021129181459 by John Chambers jmchambers:rcn.com
K: Gm
ud "Segno"\
|: (vcAG) kG2.d kG2.d | (cAG) kG2.d (cAG) \
| (ucAG) kG2.d kG2.d | (cd=e) kf2.d (cAG) :|
|: vkd2.g faf kg2.g | d2g g2a (bag) \
| f2f fg=e f2f | cAc (kf2d) (cAG) "D.S.":|
